usr/share/icons/biglinux-icons-material/scalable/apps/gnome-sudoku.svg

<?xml version="1.0" encoding="UTF-8" standalone="no"?>
<svg
   width="24"
   height="24"
   viewBox="0 0 6.349875 6.349875"
   version="1.1"
   id="svg9"
   sodipodi:docname="org.gnome.Sudoku.svg"
   inkscape:version="1.3 (0e150ed6c4, 2023-07-21)"
   xmlns:inkscape="http://www.inkscape.org/namespaces/inkscape"
   xmlns:sodipodi="http://sodipodi.sourceforge.net/DTD/sodipodi-0.dtd"
   xmlns="http://www.w3.org/2000/svg"
   xmlns:svg="http://www.w3.org/2000/svg">
  <defs
     id="defs9">
    <radialGradient
       fx="0"
       fy="0"
       cx="0"
       cy="0"
       r="1"
       gradientUnits="userSpaceOnUse"
       gradientTransform="matrix(0,5.8207184,-5.8207184,0,3.174815,0.264582)"
       spreadMethod="pad"
       id="radialGradient3666-6">
      <stop
         style="stop-color:#e6dae6;stop-opacity:1;"
         offset="0"
         id="stop3662-7" />
      <stop
         style="stop-color:#ac8fac;stop-opacity:1;"
         offset="1"
         id="stop3664-5" />
    </radialGradient>
  </defs>
  <sodipodi:namedview
     id="namedview9"
     pagecolor="#ffffff"
     bordercolor="#000000"
     borderopacity="0.25"
     inkscape:showpageshadow="2"
     inkscape:pageopacity="0.0"
     inkscape:pagecheckerboard="0"
     inkscape:deskcolor="#d1d1d1"
     inkscape:zoom="17.920737"
     inkscape:cx="-13.531809"
     inkscape:cy="10.406938"
     inkscape:window-width="2560"
     inkscape:window-height="998"
     inkscape:window-x="0"
     inkscape:window-y="0"
     inkscape:window-maximized="1"
     inkscape:current-layer="svg9" />
  <path
     d="m 2.538065,0.294917 c 0.031749,0 0.062088,-0.0042 0.091015,-0.01235 0.3802869,-0.02505 0.7605737,-0.02364 1.1398026,0.0028 0.3443042,0.02752 0.6776726,0.10195 1.0004579,0.224362 0.5358586,0.220482 0.9023876,0.603591 1.1009976,1.147916 0.111476,0.328077 0.178855,0.665679 0.199669,1.011394 0.02751,0.435672 0.01799,0.86958 -0.03034,1.303841 -0.03704,0.304442 -0.115708,0.596536 -0.237062,0.877694 C 5.5778911,5.338456 5.2127741,5.674647 4.7086643,5.859146 4.3005084,5.997079 3.8803583,6.070103 3.4475085,6.077158 2.9624487,6.103292 2.4816221,6.065891 2.0050286,5.968175 1.129804,5.773798 0.588301,5.239351 0.384399,4.365537 0.297619,3.972903 0.257402,3.574625 0.265868,3.172114 0.256368,2.744908 0.301498,2.321935 0.402391,1.905666 0.617228,1.09006 1.135448,0.584186 1.9566991,0.388751 2.1482536,0.341831 2.3426304,0.310081 2.5380654,0.294911 Z"
     style="fill:url(#radialGradient3666-6);fill-rule:evenodd;stroke:none;stroke-width:0.352683;stroke-dasharray:none"
     id="path3668" />
  <g
     id="g20"
     transform="matrix(1.1817549,0,0,1.1817549,-0.5770604,-0.57774228)"
     style="stroke-width:0.846199">
    <rect
       x="1.4957952"
       y="1.496371"
       width="3.3582845"
       height="3.3582845"
       rx="0.30548215"
       ry="0.30548215"
       fill="#ffffff"
       paint-order="markers stroke fill"
       id="rect13"
       style="stroke-width:0.846199" />
    <path
       d="M 3.6964359,1.4963735 V 2.5582052 H 2.5773657 V 1.4963735 Z m 1.156288,1.1483706 V 3.7065758 H 3.7336537 V 2.6447441 Z M 3.6964359,3.7861915 V 4.8480232 H 2.5773657 V 3.7861915 Z M 2.6148654,2.6412825 V 3.7031142 H 1.4957952 V 2.6412825 Z"
       opacity="0.05"
       paint-order="markers stroke fill"
       id="path13"
       style="stroke-width:0.846199" />
    <path
       d="M 2.4878189,1.4963735 H 2.6404158 V 4.8546579 H 2.4878189 Z m 1.2213517,0 H 3.8617674 V 4.8546579 H 3.7091706 Z"
       fill="#e6dae6"
       paint-order="markers stroke fill"
       id="path14"
       style="stroke-width:0.846199" />
    <path
       d="M 4.8540796,2.4886857 V 2.6412825 H 1.4957952 V 2.4886857 Z m 0,1.2210632 V 3.8623457 H 1.4957952 V 3.7097489 Z"
       fill="#e6dae6"
       paint-order="markers stroke fill"
       id="path15"
       style="stroke-width:0.846199" />
    <path
       d="m 1.9504127,2.3358004 c 0.1142313,0 0.2209625,-0.083654 0.2209625,-0.2319242 0,-0.1482699 -0.091154,-0.2146163 -0.2033663,-0.2146163 A 0.19615473,0.19615473 0 0 0 1.8676238,1.9157985 L 1.8840662,1.7207976 H 2.1390674 V 1.648105 H 1.8105082 l -0.021058,0.3167321 0.045,0.027404 c 0.038654,-0.025673 0.067212,-0.039519 0.1125005,-0.039519 0.08452,0 0.1399045,0.057116 0.1399045,0.1537507 0,0.098654 -0.064616,0.1592315 -0.1436545,0.1592315 -0.078462,0 -0.1269237,-0.035769 -0.1658661,-0.074423 l -0.041539,0.055096 c 0.045289,0.045289 0.1096159,0.089424 0.2146164,0.089424 z"
       fill="#666666"
       stroke-width="0.224244"
       aria-label="5"
       id="path16" />
    <rect
       transform="rotate(90)"
       x="2.5665746"
       y="-3.7853248"
       width="1.2210631"
       height="1.2210631"
       rx="0.13557753"
       ry="0.13557753"
       fill="#de8787"
       paint-order="markers stroke fill"
       id="rect16"
       style="stroke-width:0.846199" />
    <g
       stroke-width="0.777375"
       id="g19"
       transform="matrix(0.28846284,0,0,0.28846284,0.73252256,-80.054956)">
      <path
         d="m 7.738,289.59 h 1.47 v -0.252 H 8.561 c -0.118,0 -0.262,0.013 -0.383,0.022 0.549,-0.52 0.915,-0.994 0.915,-1.46 0,-0.417 -0.261,-0.691 -0.679,-0.691 -0.296,0 -0.497,0.137 -0.688,0.344 l 0.169,0.166 c 0.127,-0.153 0.293,-0.271 0.484,-0.271 0.29,0 0.43,0.194 0.43,0.462 0,0.402 -0.337,0.867 -1.07,1.508 z"
         fill="#ffffff"
         aria-label="2"
         id="path17"
         style="stroke-width:0.777375" />
      <path
         d="m 8.466,293.82 c 0.407,0 0.736,-0.244 0.736,-0.655 0,-0.313 -0.216,-0.52 -0.485,-0.583 v -0.012 c 0.241,-0.09 0.407,-0.276 0.407,-0.555 0,-0.363 -0.282,-0.576 -0.667,-0.576 -0.267,0 -0.47,0.116 -0.643,0.276 l 0.154,0.181 a 0.67,0.67 0 0 1 0.476,-0.222 c 0.238,0 0.389,0.144 0.389,0.363 0,0.248 -0.163,0.439 -0.636,0.439 v 0.22 c 0.53,0 0.714,0.184 0.714,0.457 0,0.266 -0.194,0.429 -0.467,0.429 -0.26,0 -0.435,-0.122 -0.57,-0.263 l -0.144,0.188 a 0.95,0.95 0 0 0 0.736,0.313 z"
         fill="#666666"
         aria-label="3"
         id="path18"
         style="stroke-width:0.777375" />
      <path
         d="m 12.07,292.19 c 0,-0.313 0.17,-0.52 0.388,-0.52 0.295,0 0.47,0.25 0.502,0.724 -0.147,0.216 -0.323,0.307 -0.48,0.307 -0.272,0 -0.41,-0.2 -0.41,-0.511 z m 0.326,1.635 c 0.432,0 0.833,-0.357 0.833,-1.287 0,-0.73 -0.329,-1.094 -0.77,-1.094 -0.358,0 -0.658,0.301 -0.658,0.746 0,0.476 0.25,0.724 0.632,0.724 0.192,0 0.389,-0.11 0.53,-0.282 -0.022,0.71 -0.279,0.955 -0.577,0.955 a 0.507,0.507 0 0 1 -0.382,-0.175 l -0.16,0.178 a 0.73,0.73 0 0 0 0.552,0.235 z"
         fill="#666666"
         aria-label="9"
         id="path19"
         style="stroke-width:0.777375" />
    </g>
  </g>
</svg>

<svg xmlns="http://www.w3.org/2000/svg" width="24" height="24" viewBox="0 0 6.35 6.35"><defs><radialGradient id="a" cx="0" cy="0" r="1" fx="0" fy="0" gradientTransform="rotate(90 1.455 1.72) scale(5.82072)" gradientUnits="userSpaceOnUse" spreadMethod="pad"><stop offset="0" style="stop-color:#e6dae6;stop-opacity:1"/><stop offset="1" style="stop-color:#ac8fac;stop-opacity:1"/></radialGradient></defs><path d="M2.538.295A.334.334 0 0 0 2.63.283a8.42 8.42 0 0 1 1.14.002 3.62 3.62 0 0 1 1 .225c.536.22.903.603 1.101 1.148.112.328.18.665.2 1.011.028.436.018.87-.03 1.304a3.166 3.166 0 0 1-.237.878c-.225.487-.59.824-1.094 1.008a4.125 4.125 0 0 1-1.261.218 5.642 5.642 0 0 1-1.443-.109C1.13 5.774.588 5.24.385 4.366a5.025 5.025 0 0 1-.12-1.194c-.009-.427.036-.85.137-1.266C.617 1.09 1.135.584 1.957.389c.191-.047.386-.079.581-.094Z" style="fill:url(#a);fill-rule:evenodd;stroke:none;stroke-width:.352683;stroke-dasharray:none"/><g style="stroke-width:.846199" transform="matrix(1.18175 0 0 1.18175 -.577 -.578)"><rect width="3.358" height="3.358" x="1.496" y="1.496" fill="#fff" paint-order="markers stroke fill" rx=".305" ry=".305" style="stroke-width:.846199"/><path d="M3.696 1.496v1.062H2.577V1.496Zm1.157 1.149v1.062h-1.12V2.645ZM3.696 3.786v1.062H2.577V3.786ZM2.615 2.641v1.062h-1.12V2.641Z" opacity=".05" paint-order="markers stroke fill" style="stroke-width:.846199"/><path fill="#e6dae6" d="M2.488 1.496h.152v3.359h-.152Zm1.221 0h.153v3.359h-.153Z" paint-order="markers stroke fill" style="stroke-width:.846199"/><path fill="#e6dae6" d="M4.854 2.489v.152H1.496V2.49Zm0 1.22v.153H1.496V3.71Z" paint-order="markers stroke fill" style="stroke-width:.846199"/><path fill="#666" d="M1.95 2.336c.115 0 .221-.084.221-.232 0-.148-.09-.215-.203-.215a.196.196 0 0 0-.1.027l.016-.195h.255v-.073h-.328l-.022.317.045.027a.184.184 0 0 1 .113-.04c.084 0 .14.058.14.154 0 .1-.065.16-.144.16a.222.222 0 0 1-.166-.075l-.041.055c.045.046.11.09.214.09z" aria-label="5"/><rect width="1.221" height="1.221" x="2.567" y="-3.785" fill="#de8787" paint-order="markers stroke fill" rx=".136" ry=".136" style="stroke-width:.846199" transform="rotate(90)"/><g stroke-width=".777"><path fill="#fff" d="M7.738 289.59h1.47v-.252h-.647c-.118 0-.262.013-.383.022.549-.52.915-.994.915-1.46 0-.417-.261-.691-.679-.691-.296 0-.497.137-.688.344l.169.166c.127-.153.293-.271.484-.271.29 0 .43.194.43.462 0 .402-.337.867-1.07 1.508z" aria-label="2" style="stroke-width:.777375" transform="matrix(.28846 0 0 .28846 .733 -80.055)"/><path fill="#666" d="M8.466 293.82c.407 0 .736-.244.736-.655 0-.313-.216-.52-.485-.583v-.012c.241-.09.407-.276.407-.555 0-.363-.282-.576-.667-.576-.267 0-.47.116-.643.276l.154.181a.67.67 0 0 1 .476-.222c.238 0 .389.144.389.363 0 .248-.163.439-.636.439v.22c.53 0 .714.184.714.457 0 .266-.194.429-.467.429-.26 0-.435-.122-.57-.263l-.144.188a.95.95 0 0 0 .736.313z" aria-label="3" style="stroke-width:.777375" transform="matrix(.28846 0 0 .28846 .733 -80.055)"/><path fill="#666" d="M12.07 292.19c0-.313.17-.52.388-.52.295 0 .47.25.502.724-.147.216-.323.307-.48.307-.272 0-.41-.2-.41-.511zm.326 1.635c.432 0 .833-.357.833-1.287 0-.73-.329-1.094-.77-1.094-.358 0-.658.301-.658.746 0 .476.25.724.632.724.192 0 .389-.11.53-.282-.022.71-.279.955-.577.955a.507.507 0 0 1-.382-.175l-.16.178a.73.73 0 0 0 .552.235z" aria-label="9" style="stroke-width:.777375" transform="matrix(.28846 0 0 .28846 .733 -80.055)"/></g></g></svg>
